X:1
T:A Shropshire Lad
T:In Summer-Time on Bredon
T:A Shropshire Lad
T:4. In Summer-Time on Bredon
T:Arthur Somervell
T:A. E. Housman
T:Creative Commons copyright waiver (CC0 1.0 Universal)
T:Creative Commons copyright waiver (CC0 1.0 Universal)
T:Creative Commons copyright waiver (CC0 1.0 Universal)
T:Creative Commons copyright waiver (CC0 1.0 Universal)
T:Creative Commons copyright waiver (CC0 1.0 Universal)
T:Creative Commons copyright waiver (CC0 1.0 Universal)
T:Creative Commons copyright waiver (CC0 1.0 Universal)
C:Arthur Somervell
Z:A. E. Housman
Z:Creative Commons copyright waiver (CC0 1.0 Universal)
%%score 1 { ( 2 3 ) | ( 4 5 ) }
L:1/8
Q:1/4=116
M:4/4
K:C
V:1 treble nm="Voice"
V:2 treble nm="Piano"
V:3 treble 
V:4 bass 
V:5 bass 
V:1
"^Allegretto" z8 | z4 z2!mf! G2 | c3 c A2 B2 | c2 G4 z G | A3!>(! G (GF) (GA)!>)! | D4 z2 z D | %6
w: |In|sum- mer time on|Bre- don The|bells they sound * so _|clear; Round|
 E3!<(! E (^FG) (AF) | (G3 A)!<)! B2 G2 | c3!<(! c (BA) (Bc)!<)! | d2 B2!>(! c2 (AF)!>)! | %10
w: both the shires * they *|ring _ them, In|stee- ples far _ and _|near, A hap- py _|
 (E2 G4) G2 | c6 z2 | z8 |!mf! d2 B G G2 A2 | (Bc) d4 e2 |"^poco rit." d3 G (GA)!>(! (E^F) | %16
w: noise _ to|hear.||Here of a Sun- day|morn- * ing My|love and I _ would *|
 G6!>)!"^tempo." G2 | c3 c A2 B2 |!<(! c2 G4 G2!<)! | e3"^rall." e (de) (cd) | e3 d c2 A2 | %21
w: lie, And|see the co- loured|coun- ties, And|hear the larks * so _|high A- bout us|
 (G2 c4) B2 | c4 z4 | z4 z2!p! G2 | c3 c A2 B2 | c2 G4 G2 | A3!>(! G (GF) (GA)!>)! | D4 z2 D2 | %28
w: in _ the|sky.|The|bells would ring to|call her In|val- leys miles _ a- *|\- way; “Come|
!<(! E3 E (^FG) (AF)!<)! | (G3 A) B2 G2 |!<(! c3 c (BA) (Bc)!<)! | d2 z!p! B c2 (AF) | (E2 G4) G2 | %33
w: all to church, * good *|peo- * ple; Good|peo- ple, come * and *|pray.” But here my _|love _ would|
 c6 z2 | z4 z2!f! e2 | d3 G G2 A2 | (Bc) d4 e2 | d3 G (GA) (E^F) | G6 G2 | c3 c A2 B2 | c2 G4 G2 | %41
w: stay.|And|I would turn and|an- * swer A-|mong the spring- * ing _|thyme, ‘Oh,|peal up- on our|wed- ding, And|
 e3 e (de) (cd) | e3 d c2 A2 | (G2 c4) B2 | c6 z2 | z4"^rall." z2!p! G2 || %46
w: we will hear _ the _|chime, And come to|church _ in|time.’|But|
[K:Eb]"^Meno mosso" c3 c A2 B2 | c2 G4 G2 | A3 G G2 F2 | G6 B2 ||[K:Gb] e3 e c2 d2 | e2 B4 B2 | %52
w: when the snows at|Christ- mas On|Bre- don top were|strown, My|love rose up so|ear- ly And|
 c3 B (BA) (Bc) | F6 F2 |!>(! G3 G E2 F2!>)! | B,4 z2!pp! B2 | c3 c d2 c2 | B2 B4 z2 | %58
w: stole out un- * be- *|known, And|went to church a-|\- lone. They|toll’d the one bell|on- ly,|
 G2 F G E2 F2 | B,4 z2!<(! B2 | e3!<)! e (de) (cd) | B2 B4 B2 | B3 B!>(! (AB) (GA) | F4!>)! z2 F2 | %64
w: Groom there was none to|see, The|mourn- ers fol- * low’d *|af- ter, And|so to church * went *|she, And|
 E3 E (DE) (CD) | B,6 z2 | z8 ||[K:C] z4 z2!mf! G2 | c3 c A2 B2 | c2 G4 G2 | %70
w: would not wait * for *|me.||The|bells they sound on|Bre- don, And|
 A3 G!>(! (GF) (GA)!>)! | D6 D2 | E3!<(! E (^FG) (AF)!<)! | (G3 A) B2!f! G2 | %74
w: still the stee- * ples *|hum, “Come|all to church, * good *|peo- * ple.” O|
 c3"^rall." c (BA) (Bc) | d2 z B!>(! c2 (AF)!>)! | E6 D2 | C8 | z8 | z8 | !fermata!z8 |] %81
w: noi- sy bells, * be _|dumb; I hear you, *|I will|come.||||
V:2
!mf! (CEFE DF) !>!G2 | !>!c6 !>!G2 | !>!c6 !>!G2 | !>!c6 G2 | (A,C!>(!FE DA,DF)!>)! | %5
 (DB,GF DFDE) | (CG,CE)!<(! (^DE^FD) | (EB,E^F!<)! GBGE) | (CEA!<(!E CFAF)!<)! | (B,DFD) (A,CFA) | %10
 CEFE DF !>!G2 |!f! !>!c6 !>!G2 | !>!c6!>(! G2!>)! |!mf! (DGBd) (CEDC) | (B,DGB) (E^FAe) | %15
"_poco rit." (DGBd) (GE!>(!DC) | (B,D!>)!FE DF !>!G2) | !>!c6 !>!G2 |!<(! !>!c6 !>!G2!<)! | %19
"_rall." (CEGc) (C^FAc) | (D^GBd) (CE)(C=F) | (EEFE DF)"_a tempo" !>!G2 |!<(! !>!c6 !>!G2!<)! | %23
!f! !>!c6 !>!G2 |!p! !>!c6 !>!G2 | !>!c6 G2 | (A,CFE DA,DF) | (DB,GF DFDE) | %28
!<(! (CG,CE) (^DE^FD)!<)! | (EB,E^F GBGE) |!<(! (CEAE) (CFAF)!<)! | (B,DFD)!p! (A,CFA) | %32
 (CE!<(!FE DF) !>!G2!<)! |!f! !>!c6 G2 | c6 z2 | (DGBd) (CEDC) | (B,DGB) (E^FAe) | (DGBd) (GEDC) | %38
 (B,DFE DF !>!G2) | !>!c6 !>!G2 | !>!c6 !>!G2 | (CEGc) (C^FAc) | (D^GBd) (CE)(CF) | %43
 (CEFE DF) !>!G2 | !>!c6 !>!G2 |"_rall." c6 G2 ||[K:Eb]!p! (CEFE) [A,D]4 | (CEDF =EF G2) | %48
 (A,CEG) ([CE]2 [DF]2) | (G,B,EG FA_GF) ||[K:Gb] (EGAG [CF]4) | (EGFA =GA B2) | (CEGB) (CEFA) | %53
 (B,=DFC B,DFC) |!>(! (B,EGB, A,C=A,=C)!>)! | z (F,_A,_C B,=DFB) |!pp! (cEGc [Ad]F[Gc]E) | %57
 (B=DFB) z (DFB) | (B,EFG) (A,C=A,=C) | z (F,_A,_C B,=DFB) | (eGBe [FAd]2 [EGc]2) | %61
 (B=DFB) z (DFB) | (B_DFB)!>(! ([CEA]2 [B,DG]2)!>)! | (FA,CF) z (A,CF) | %64
[K:bass] (EG,B,E) [F,A,D]2 [E,G,C]2 |[K:treble]!pp! (B,=DED =CEDC) |!<(! (B,=DED =CEDC)!<)! || %67
[K:C]!<(! (B,DFE!<)!!mf! DF !>!G2) | !>!c6 !>!G2 | c6 G2 | (A,CFE!>(! DA,DF)!>)! | (DB,GF DFDE) | %72
 (CG,!<(!CE) (^DE^FD)!<)! | (EB,E^F GBGE) |!f! (CEAE)"_rall." (CFAF) | (B,DFD) (A,CFA) | %76
 (CEGc) [B,G]4 |"_a tempo." (CEFE D"_rall."F!<(! !>!G2) | !>!c6!<)! [B,G]2 | [E,C]4!pp! [E,C]4 | %80
 !fermata![E,C]8 |] %81
V:3
 (C6 ED) | (CEFE DFED) | (CEFE DFED) | (CEFE DFEC) | x8 | x8 | x8 | x8 | x8 | x8 | x6 ED | %11
 (CEFE DFED) | (CEFE DFEC) | x8 | x8 | x8 | x6 ED | (CEFE DFED) | (CEFE DFED) | x8 | x8 | x6 ED | %22
 (CEFE DFED) | (CEFE DFED) | (CEFE DFED) | (CEFE DFEC) | x8 | x8 | x8 | x8 | x8 | x8 | x6 ED | %33
 (CEFE DFED) | (CEFE DFEC) | x8 | x8 | x8 | x6 ED | (CEFE DFED) | (CEFE DFED) | x8 | x8 | x6 ED | %44
 (CEFE DFED) | (CEFE DF_ED) ||[K:Eb] x8 | x8 | x4 A,4 | x8 ||[K:Gb] x8 | x8 | x8 | x8 | x8 | x8 | %56
 x8 | x8 | x8 | x8 | x8 | x8 | x8 | x8 |[K:bass] x8 |[K:treble] x8 | x8 ||[K:C] x6 ED | %68
 (CEFE DFED) | (CEFE DFEC) | x8 | x8 | x8 | x8 | x8 | x8 | x8 | x6 ED | CEFE DF ED | x8 | x8 |] %81
V:4
!ped! (E,G,A,G, F,A,G,F,)!ped-up! |!ped! (E,G,A,G, F,A,G,F,)!ped-up! | %2
!ped! (E,G,A,G, F,A,G,F,)!ped-up! |!ped! (E,G,A,G, F,A,G,E,)!ped-up! | %4
 ([F,,C,]F,A,G,) ([D,,A,,]D,F,A,) | ([G,,D,]G,B,A, F,A,F,G,) | ([C,,G,,]C,E,G,) ([B,,^F,]G,A,F,) | %7
 ([E,,B,,]E,G,A, B,EB,G,) | ([A,,E,]A,CA,) ([D,F,]A,CA,) | ([G,,D,]F,G,F,) ([A,,E,]F,A,C) | %10
 (E,G,A,G, F,A,G,F,) | z (G,A,G, F,A,G,F,) | z (G,A,G, F,A,G,F,) | %13
 ([B,,D,]G,B,D) ([A,,E,]G, [D,^F,]2) | ([G,,D,]G,B,D) (C,^F,A,C) | %15
 (B,,D,G,B,)[I:staff -1] C[I:staff +1]G, ^F,2 | (D,=F,A,G, F,A,G,F,) | (E,G,A,G, F,A,G,F,) | %18
 (E,G,A,G, F,A,G,F,) | (C,E,G,C) (D,^F,A,C) | (B,,D,^G,B,) ([A,,E,]A,)([D,F,]A,) | %21
 ([G,,E,]G,A,G, F,A,G,F,) | z (G,A,G, F,A,G,F,) |!ped! z (G,A,G, F,A,G,F,)!ped-up! | %24
!ped! (E,G,A,G, F,A,G,F,)!ped-up! |!ped! (E,G,A,G, F,A,G,E,)!ped-up! | %26
 ([F,,C,]F,A,G,) ([D,,A,,]D,F,A,) | ([G,,D,]G,B,A, F,A,F,G,) | ([C,,G,,]C,E,G,) ([B,,^F,]G,A,F,) | %29
 (([E,,B,,]E,G,A,) B,EB,G,) | ([A,,E,]A,CA,) ([D,F,]A,CA,) | ([G,,D,]F,G,F,) ([A,,E,]F,A,C) | %32
 (E,G,A,G, F,A,G,F,) | z (G,A,G, F,A,G,F,) | z (G,A,G, F,A,G,E,) | ([B,,D,]G,B,D) E,G, ^F,2 | %36
 ([G,,D,]G,B,D) (C,^F,A,C) | ([B,,D,]G,B,D)[I:staff -1] C[I:staff +1]G, ^F,2 | %38
 (D,=F,A,G, F,A,G,F,) | (E,G,A,G, F,A,G,F,) | (E,G,A,G, F,A,G,F,) | (C,E,G,C) (D,^F,A,C) | %42
 (B,,D,^G,B,) ([A,,E,]A,)([D,F,]A,) | ([G,,E,]G,A,G, F,A,G,F,) | z (G,A,G, F,A,G,F,) | %45
 (E,G,A,G, F,_A,G,F,) ||[K:Eb] (E,G,A,G,) F,4 | (E,G,F,A, G,A, B,2) | (F,,C,E,G,) [B,,,B,,]4 | %49
 ([E,,B,,]E,G,B, A,_CB,A,) ||[K:Gb] (G,B,CB,) A,4 | (G,B,A,C B,C D2) | (A,,E,G,B,) (C,E,F,A,) | %53
 (B,,=D,F,C, B,,D,F,C,) | (B,,E,G,B,, A,,C,=A,,=C,) | B,,4 !>![B,,,F,,]4 | %56
 [E,G,C]4 [F,A,D]2 [E,G,C]2 | [=D,F,B,]4 !>![B,,,F,,]4 | (B,,E,F,G,) (A,,C,=A,,=C,) | %59
 B,,4 !>![B,,,F,,]4 | ([G,B,E]4 [F,A,D]2 [E,G,C]2 | [=D,F,B,]4) !>![B,,,F,,]4 | %62
 ([_D,F,B,]4 [C,E,A,]2 [B,,D,G,]2 | [A,,C,F,]4) !>![B,,,F,,]4 | %64
 ([G,,B,,E,]4 [F,,A,,D,]2 [E,,G,,C,]2) | (=D,F,G,F, E,G,F,E,) | (=D,F,=G,F, E,G,F,E,) || %67
[K:C] (D,F,A,G, F,A,G,F,) |!ped! z (G,A,G, F,A,G,F,)!ped-up! |!ped! z (G,A,G, F,A,G,E,)!ped-up! | %70
 ([F,,C,]F,A,G,) ([D,,A,,]D,F,A,) | ([G,,D,]G,B,A, F,A,F,G,) | ([C,,G,,]C,E,G,) ([B,,^F,]G,A,F,) | %73
 ([E,,B,,]E,G,A,) (B,EB,G,) | ([A,,E,]A,CA,) ([D,F,]A,CA,) | ([G,,D,]F,G,F,) ([A,,E,]F,A,C) | %76
 ([G,,E,]G,CE) [G,,F,]4 | (E,G,A,G, F,A, G,)F, | E,G,A,G, D,,2 G,F, | [C,,G,,]4 [C,,G,,]4 | %80
 !fermata![C,,G,,]8 |] %81
V:5
 !>!C,8 | C,8 | C,8 | C,8 | x8 | x8 | x8 | x8 | x8 | x8 | G,,8 | !>![C,,G,,]8 | [C,,G,,]8 | x8 | %14
 x8 | x4 A,,2 D,2 | G,,8 | C,8 | C,8 | x8 | x8 | x8 | !>![C,,G,,]8 | [C,,G,,]8 | C,8 | C,8 | x8 | %27
 x8 | x8 | x8 | x8 | x8 | G,,8 | [C,,G,,]8 | [C,,G,,]8 | x4 A,,2 D,2 | x8 | x4 A,,2 D,2 | G,,8 | %39
 C,8 | C,8 | x8 | x8 | x8 | !>![C,,G,,]8 | C,8 ||[K:Eb] C,8 | C,8 | x8 | x8 ||[K:Gb] E,8 | E,8 | %52
 x8 | x8 | x8 | x8 | x8 | x8 | x8 | x8 | x8 | x8 | x8 | x8 | x8 | B,,8 | A,,8 ||[K:C] G,,8 | %68
 [C,,G,,]8 | [C,,G,,]8 | x8 | x8 | x8 | x8 | x8 | x8 | x8 | C,6 G,,2 | A,,4 F,A, G,,2 | x8 | x8 |] %81

